X:0649
T:Sally in our Alley.
S:Aird v4 #49
B:NLS Glen.16b(2)
M:3/4
L:1/8
Q:1/4=100
I: ||
Z:Jack Campin * www.campin.me.uk * 2009
K:D
z2z AAd|d2  cd e/f/ {a}g/{f}e/|   d2 cdBA     |A3 (3G/F/E/ Dd |d
 zz AAd|d2  cd e/f/ {a}g/{f}e/|   d2 c d/d/ BA|A3 (3G/F/E/ Dd |d
 zz AAF|A3 =cBG               |   B3  fgf     |e3   dce-      |e
 zz GFE|D3  fgf               |{f}e3  f/f/  af|d3   c/B/   Ad-|d2z z2|]
<end>
<start>
